!!!OTL: 1746. Der Birnbaum. / [Zaehlgeschichte.]
!!!ARE: Europa, Mitteleuropa, Deutschland, Hessen, Darmstadt
!!!SCT: E1746
!!!TXL: @@DE
!!!YEM: Copyright 1995, estate of Helmut Schaffrath.
**kern	**text
*ICvox	*
!! Mixed meters:  6/8; 3/8
*M6/8	*
*k[b-]	*
*F:	*
=1	=1
!LO:TX:a:t=Mel. aus dem Heſſen-Darmſtädtiſchen.	!
{8.f	1._Dro-
16e	-ben
8f	auf
8g	grü-
8f	-ner
8g	Wald-
=2	=2
4.a	-haid
4.g}	da
=3	=3
*M3/8	*
{8a	ſteht
8a	ein
16g	ſchö-
16g	-ner
=4	=4
8a	Birnbaum,
8a	.
16g	ſchö-
16g	-ner
=5	=5
8a	Birn-
8a	-baum,
8g	trägt
=6	=6
4f;}	Laub.
{8c	2._Was
=7||	=7||
*M6/8	*
8.f	iſt
16e	auf
8f	dem
8g	ſel-
8f	-bi-
8g	-gen
=8	=8
4.a	Baum?
4r}	.
{(16fL	ein
16aJ)	.
=9	=9
4cc	wun-
8cc	-der-
4b-	-ſchö-
8cc	-ner
=10	=10
4.a	Aſt.
4r	.
8r}	.
=11||	=11||
*M3/8	*
!LO:TX:a:t=So vielmal wiederhold als nöthig wird. [Zwei Takte]	!
{8a	Aſt
16a	auf'm
16a	.
8g	Baum,
=12	=12
8a	Baum
16a	in
16a	der
8g}	Haid.
=13	=13
*M6/8	*
{8.f	1._Dro-
16e	-ben
8f	auf
8g	grü-
8f	-ner
8g	Wald-
=14	=14
4.a	-haid
4.g}	da
=15	=15
*M3/8	*
{8a	ſteht
8a	ein
16g	ſchö-
16g	-ner
=16	=16
8a	Birnbaum,
8a	.
16g	ſchö-
16g	-ner
=17	=17
8a	Birn-
8a	-baum,
8g	trägt
=18	=18
4f;	Laub.
8r}	.
==	==
!!!AGN: Scherz -, Spiel - Lied, Zaehl - Geschichte
!!!ONB: ESAC (Essen Associative Code) Database: ERK3
!!!AMT: irregular
!!!AIN: vox
!!!EED: Helmut Schaffrath
!!!EEV: 1.0
!!!GTL: Scherz-, Spiel- und Spottlieder.
!!!URL-scan: https://rosdok.uni-rostock.de/mcrviewer/recordIdentifier/rosdok_ppn745177999/iview2/phys_0535.iview2?x=-449.8344612962892&y=1036.1216360274702&scale=0.47549036216460333&rotation=0&layout=singlePageLayout
!!!ENC: Anna Maria Matuszewska
!!!EEV: 2025/08/01
*-	*-
